assets/img/icons/pack.svg

<svg xmlns="http://www.w3.org/2000/svg" viewBox="0 0 660 772" width="78" height="91"><defs><clipPath clipPathUnits="userSpaceOnUse" id="cp1"><path d="M0 0h660v772H0z"/></clipPath></defs><style>.shp0{stroke:#f9fafb;stroke-width:4}</style><g id="Page 1" clip-path="url(#cp1)"><path id="Path 1" fill-rule="evenodd" fill="#686868" class="shp0" d="M423.35 245.27H224.54V144.09h198.81v101.18zm-32-69.18H256.54v37.17h134.81v-37.17z"/><path id="Path 2" fill-rule="evenodd" fill="#686868" class="shp0" d="M645.17 664.59c-15.12 16.12-39.63 18.37-72.84 18.68l1.36 26.68c.81 15.92-4.71 30.97-15.54 42.37-10.84 11.41-25.59 17.68-41.53 17.68H143.48c-15.95 0-30.7-6.27-41.53-17.68-10.84-11.4-16.36-26.45-15.55-42.37l1.37-26.68c-33.21-.31-57.71-2.56-72.84-18.68C5.11 654.14.96 639.38 2.22 619.48c7.03-110.37 18.26-176.06 36.41-212.99 17.22-35.04 41.08-45 65.7-47.39l8.17-160c.92-18 9.93-34.65 24.39-45.69l-2.15-23.46c-1.48-16 3.5-31.17 14.03-42.7 10.51-11.53 25.16-17.88 41.23-17.88h34.54v-8.06c0-32.71 26.6-59.31 59.3-59.31h80.21c32.69 0 59.3 26.6 59.3 59.31v8.06h46.75c16.07 0 30.71 6.35 41.24 17.88 10.51 11.54 15.5 26.7 14.02 42.7l-2.16 23.46c14.29 10.91 23.47 27.58 24.39 45.7l8.18 159.98c24.62 2.39 48.48 12.36 65.7 47.4 18.15 36.93 29.38 102.62 36.41 212.98 1.26 19.9-2.89 34.67-12.71 45.12zm-103.44 46.99l-24.95-488.33-7.83 85.03c-2.9 31.6-30.94 57.34-62.64 57.63v121.04c10.62 7.28 17.68 20.01 17.68 34.5v61.03c0 14.48-7.06 27.22-17.68 34.51V738h70.31c7.08 0 13.6-2.74 18.33-7.73 4.73-4.97 7.15-11.61 6.78-18.69zM143.48 738h58.09V616.99c-10.61-7.29-17.67-20.03-17.67-34.51v-61.03c0-14.49 7.06-27.23 17.67-34.5V364.53c-26.39-5.75-47.9-28.79-50.44-56.25l-7.82-85.08-24.95 488.38c-.36 7.08 2.05 13.72 6.78 18.69 4.74 4.99 11.24 7.73 18.34 7.73zM89.4 651.28l13.29-260.04c-30.59 4.53-56.06 34.28-68.53 230.27-.67 10.44.72 17.58 4.11 21.19 6.75 7.19 26.61 8.39 51.13 8.58zM400.38 738h13.93V623.41h-13.93V738zm0-257.48h13.93V365.93h-13.93v114.59zm25.46 110.89c2.9 0 6.15-3.67 6.15-8.93v-61.03c0-5.26-3.25-8.93-6.15-8.93h-36.98c-2.91 0-6.15 3.67-6.15 8.93v61.03c0 5.26 3.24 8.93 6.15 8.93h36.98zM279.51 738h88.87V616.98c-10.61-7.28-17.67-20.02-17.67-34.5v-61.03c0-14.49 7.06-27.22 17.67-34.5V365.93h-88.87v121.02c10.61 7.28 17.66 20.01 17.66 34.5v61.03c0 14.48-7.05 27.22-17.66 34.5V738zm-45.94 0h13.94V623.41h-13.94V738zm13.94-372.07h-13.94v114.59h13.94V365.93zm11.52 225.48c2.91 0 6.14-3.67 6.14-8.93v-61.03c0-5.26-3.24-8.93-6.14-8.93h-36.98c-2.91 0-6.15 3.67-6.15 8.93v61.03c0 5.26 3.24 8.93 6.15 8.93h36.98zM166.6 127.02L183 305.34c1.43 15.5 15.78 28.59 31.34 28.59h231.42c15.56 0 29.91-13.09 31.34-28.59l16.4-178.32c.64-6.94-1.42-13.4-5.8-18.21-4.39-4.8-10.64-7.45-17.6-7.45H190c-6.97 0-13.21 2.65-17.59 7.45-4.38 4.81-6.45 11.27-5.81 18.21zm89.94-57.65h134.81v-8.06c0-15.06-12.25-27.31-27.3-27.31h-80.2c-15.06 0-27.31 12.25-27.31 27.31v8.06zm369.4 552.14C613.46 425.5 588 395.76 557.41 391.24l13.28 260.04c24.52-.19 44.4-1.39 51.14-8.58 3.39-3.61 4.77-10.75 4.11-21.19z"/></g></svg>

<svg xmlns="http://www.w3.org/2000/svg" viewBox="0 0 660 772" width="78" height="91">
	<defs>
		<clipPath clipPathUnits="userSpaceOnUse" id="cp1">
			<path d="M0 0L660 0L660 772L0 772Z" />
		</clipPath>
	</defs>
	<style>
		tspan {
			white-space: pre
		}

		.shp0 {
			stroke: #f9fafb;
			stroke-width: 4
		}
	</style>
	<g id="Page 1" clip-path="url(#cp1)">
		<path id="Path 1" fill-rule="evenodd" fill="#686868" class="shp0"
			d="M423.35 245.27L224.54 245.27L224.54 144.09L423.35 144.09L423.35 245.27ZM391.35 176.09L256.54 176.09L256.54 213.26L391.35 213.26L391.35 176.09Z" />
		<path id="Path 2" fill-rule="evenodd" fill="#686868" class="shp0"
			d="M645.17 664.59C630.05 680.71 605.54 682.96 572.33 683.27L573.69 709.95C574.5 725.87 568.98 740.92 558.15 752.32C547.31 763.73 532.56 770 516.62 770L143.48 770C127.53 770 112.78 763.73 101.95 752.32C91.11 740.92 85.59 725.87 86.4 709.95L87.77 683.27C54.56 682.96 30.06 680.71 14.93 664.59C5.11 654.14 0.96 639.38 2.22 619.48C9.25 509.11 20.48 443.42 38.63 406.49C55.85 371.45 79.71 361.49 104.33 359.1L112.5 199.1C113.42 181.1 122.43 164.45 136.89 153.41L134.74 129.95C133.26 113.95 138.24 98.78 148.77 87.25C159.28 75.72 173.93 69.37 190 69.37L224.54 69.37L224.54 61.31C224.54 28.6 251.14 2 283.84 2L364.05 2C396.74 2 423.35 28.6 423.35 61.31L423.35 69.37L470.1 69.37C486.17 69.37 500.81 75.72 511.34 87.25C521.85 98.79 526.84 113.95 525.36 129.95L523.2 153.41C537.49 164.32 546.67 180.99 547.59 199.11L555.77 359.09C580.39 361.48 604.25 371.45 621.47 406.49C639.62 443.42 650.85 509.11 657.88 619.47C659.14 639.37 654.99 654.14 645.17 664.59ZM541.73 711.58L516.78 223.25L508.95 308.28C506.05 339.88 478.01 365.62 446.31 365.91L446.31 486.95C456.93 494.23 463.99 506.96 463.99 521.45L463.99 582.48C463.99 596.96 456.93 609.7 446.31 616.99L446.31 738L516.62 738C523.7 738 530.22 735.26 534.95 730.27C539.68 725.3 542.1 718.66 541.73 711.58ZM143.48 738L201.57 738L201.57 616.99C190.96 609.7 183.9 596.96 183.9 582.48L183.9 521.45C183.9 506.96 190.96 494.22 201.57 486.95L201.57 364.53C175.18 358.78 153.67 335.74 151.13 308.28L143.31 223.2L118.36 711.58C118 718.66 120.41 725.3 125.14 730.27C129.88 735.26 136.38 738 143.48 738ZM89.4 651.28L102.69 391.24C72.1 395.77 46.63 425.52 34.16 621.51C33.49 631.95 34.88 639.09 38.27 642.7C45.02 649.89 64.88 651.09 89.4 651.28ZM400.38 738L414.31 738L414.31 623.41L400.38 623.41L400.38 738ZM400.38 480.52L414.31 480.52L414.31 365.93L400.38 365.93L400.38 480.52ZM425.84 591.41C428.74 591.41 431.99 587.74 431.99 582.48L431.99 521.45C431.99 516.19 428.74 512.52 425.84 512.52L388.86 512.52C385.95 512.52 382.71 516.19 382.71 521.45L382.71 582.48C382.71 587.74 385.95 591.41 388.86 591.41L425.84 591.41ZM279.51 738L368.38 738L368.38 616.98C357.77 609.7 350.71 596.96 350.71 582.48L350.71 521.45C350.71 506.96 357.77 494.23 368.38 486.95L368.38 365.93L279.51 365.93L279.51 486.95C290.12 494.23 297.17 506.96 297.17 521.45L297.17 582.48C297.17 596.96 290.12 609.7 279.51 616.98L279.51 738ZM233.57 738L247.51 738L247.51 623.41L233.57 623.41L233.57 738ZM247.51 365.93L233.57 365.93L233.57 480.52L247.51 480.52L247.51 365.93ZM259.03 591.41C261.94 591.41 265.17 587.74 265.17 582.48L265.17 521.45C265.17 516.19 261.93 512.52 259.03 512.52L222.05 512.52C219.14 512.52 215.9 516.19 215.9 521.45L215.9 582.48C215.9 587.74 219.14 591.41 222.05 591.41L259.03 591.41ZM166.6 127.02L183 305.34C184.43 320.84 198.78 333.93 214.34 333.93L445.76 333.93C461.32 333.93 475.67 320.84 477.1 305.34L493.5 127.02C494.14 120.08 492.08 113.62 487.7 108.81C483.31 104.01 477.06 101.36 470.1 101.36L190 101.36C183.03 101.36 176.79 104.01 172.41 108.81C168.03 113.62 165.96 120.08 166.6 127.02ZM256.54 69.37L391.35 69.37L391.35 61.31C391.35 46.25 379.1 34 364.05 34L283.85 34C268.79 34 256.54 46.25 256.54 61.31L256.54 69.37ZM625.94 621.51C613.46 425.5 588 395.76 557.41 391.24L570.69 651.28C595.21 651.09 615.09 649.89 621.83 642.7C625.22 639.09 626.6 631.95 625.94 621.51Z" />
	</g>
</svg>
